icon-svg/discovery-plus.svg

<svg xmlns="http://www.w3.org/2000/svg" viewBox="0 0 24 24"><path fill="#44739e" d="M13.67 4.448H8.514v3.766h.126a5.973 5.973 0 0 1 2.314 11.337h2.756l.388-.009a7.552 7.552 0 0 0-.431-15.092Zm-.132 9.717a5.262 5.262 0 1 0-5.262 5.262 5.264 5.264 0 0 0 5.262-5.262m.361-10.596H7.598v4.358l-.3.042a6.278 6.278 0 0 0 0 12.402l.294.037.042.006.229.017h5.926A8.23 8.23 0 0 0 22 12.192v-.491a8.12 8.12 0 0 0-8.101-8.132m7.784 8.61a7.87 7.87 0 0 1-7.852 7.88H9.23q-.212.035-.43.051l-.236.016-.24.005q-.24 0-.477-.021l-.133-.01h-.023l-.126-.016-.267-.042a5.971 5.971 0 0 1-.007-11.765h.008l.299-.045.067-.009.242-.023V3.934h6.027a7.765 7.765 0 0 1 7.748 7.775Z"/></svg>

<svg xmlns="http://www.w3.org/2000/svg" fill="#44739e" width="24" height="24" version="1.1" viewBox="0 0 24 24"><path d="M 13.671,4.448 H 8.516 v 3.766 h 0.126 a 5.972,5.972 0 0 1 2.314,11.335 h 0.6 0.007 2.148 L 14.099,19.54 A 7.551,7.551 0 0 0 13.668,4.45 Z m -0.132,9.716 a 5.261,5.261 0 1 0 -5.261,5.261 5.263,5.263 0 0 0 5.261,-5.261 z M 13.9,3.569 H 7.6 V 7.927 L 7.3,7.969 a 6.277,6.277 0 0 0 0,12.4 v 0 l 0.294,0.037 v 0 l 0.042,0.006 0.229,0.017 H 13.79 A 8.228,8.228 0 0 0 22,12.191 V 11.7 A 8.118,8.118 0 0 0 13.9,3.569 Z m 7.783,8.609 a 7.869,7.869 0 0 1 -7.851,7.879 h -4.6 c -0.141,0.023 -0.285,0.04 -0.43,0.051 l -0.236,0.016 v 0 l -0.24,0.005 q -0.24,0 -0.477,-0.021 v 0 l -0.133,-0.01 v 0 H 7.693 L 7.567,20.082 7.3,20.04 A 5.97,5.97 0 0 1 7.293,8.277 H 7.301 L 7.6,8.232 v 0 L 7.667,8.223 v 0 L 7.909,8.2 V 3.934 h 6.026 a 7.764,7.764 0 0 1 7.747,7.774 z"/></svg>
